X:398
T: "Die Rosen"
N: Z1078
O: Europa, Mitteleuropa, Deutschland, Westfalen
R: Romanze, Ballade
M: 2/4
L: 1/16
K: C
G2 | c2G2E2G2 | c3Bcc
d2 | e2c2B3A | A4G2
G2 | A2G2AGFE | E2F2G2
G2 | c2c2e2c2 | B4c2

